svgs/light/qrcode.svg

<svg xmlns="http://www.w3.org/2000/svg" viewBox="0 0 448 512"><!--! Font Awesome Pro 6.3.0 by @fontawesome - https://fontawesome.com License - https://fontawesome.com/license (Commercial License) Copyright 2023 Fonticons, Inc. --><path d="M144 64H48c-8.8 0-16 7.2-16 16v96c0 8.8 7.2 16 16 16h96c8.8 0 16-7.2 16-16V80c0-8.8-7.2-16-16-16zM48 32h96c26.5 0 48 21.5 48 48v96c0 26.5-21.5 48-48 48H48c-26.5 0-48-21.5-48-48V80C0 53.5 21.5 32 48 32zm96 288H48c-8.8 0-16 7.2-16 16v96c0 8.8 7.2 16 16 16h96c8.8 0 16-7.2 16-16V336c0-8.8-7.2-16-16-16zM48 288h96c26.5 0 48 21.5 48 48v96c0 26.5-21.5 48-48 48H48c-26.5 0-48-21.5-48-48V336c0-26.5 21.5-48 48-48zM304 64c-8.8 0-16 7.2-16 16v96c0 8.8 7.2 16 16 16h96c8.8 0 16-7.2 16-16V80c0-8.8-7.2-16-16-16H304zM256 80c0-26.5 21.5-48 48-48h96c26.5 0 48 21.5 48 48v96c0 26.5-21.5 48-48 48H304c-26.5 0-48-21.5-48-48V80zm0 224c0-8.8 7.2-16 16-16h64c8.8 0 16 7.2 16 16v68h64V304c0-8.8 7.2-16 16-16s16 7.2 16 16v84c0 8.8-7.2 16-16 16H336c-8.8 0-16-7.2-16-16V320H288V472c0 8.8-7.2 16-16 16s-16-7.2-16-16V304zM88 104h16c8.8 0 16 7.2 16 16v16c0 8.8-7.2 16-16 16H88c-8.8 0-16-7.2-16-16V120c0-8.8 7.2-16 16-16zM72 376c0-8.8 7.2-16 16-16h16c8.8 0 16 7.2 16 16v16c0 8.8-7.2 16-16 16H88c-8.8 0-16-7.2-16-16V376zM344 104h16c8.8 0 16 7.2 16 16v16c0 8.8-7.2 16-16 16H344c-8.8 0-16-7.2-16-16V120c0-8.8 7.2-16 16-16zM320 448c0-8.8 7.2-16 16-16h16c8.8 0 16 7.2 16 16v16c0 8.8-7.2 16-16 16H336c-8.8 0-16-7.2-16-16V448zm96-16h16c8.8 0 16 7.2 16 16v16c0 8.8-7.2 16-16 16H416c-8.8 0-16-7.2-16-16V448c0-8.8 7.2-16 16-16z"/></svg>

<svg xmlns="http://www.w3.org/2000/svg" viewBox="0 0 448 512"><!--! Font Awesome Pro 6.2.0 by @fontawesome - https://fontawesome.com License - https://fontawesome.com/license (Commercial License) Copyright 2022 Fonticons, Inc. --><path d="M104 104C112.8 104 120 111.2 120 120V136C120 144.8 112.8 152 104 152H88C79.16 152 72 144.8 72 136V120C72 111.2 79.16 104 88 104H104zM144 32C170.5 32 192 53.49 192 80V176C192 202.5 170.5 224 144 224H48C21.49 224 0 202.5 0 176V80C0 53.49 21.49 32 48 32H144zM144 64H48C39.16 64 32 71.16 32 80V176C32 184.8 39.16 192 48 192H144C152.8 192 160 184.8 160 176V80C160 71.16 152.8 64 144 64zM72 376C72 367.2 79.16 360 88 360H104C112.8 360 120 367.2 120 376V392C120 400.8 112.8 408 104 408H88C79.16 408 72 400.8 72 392V376zM144 288C170.5 288 192 309.5 192 336V432C192 458.5 170.5 480 144 480H48C21.49 480 0 458.5 0 432V336C0 309.5 21.49 288 48 288H144zM144 320H48C39.16 320 32 327.2 32 336V432C32 440.8 39.16 448 48 448H144C152.8 448 160 440.8 160 432V336C160 327.2 152.8 320 144 320zM360 104C368.8 104 376 111.2 376 120V136C376 144.8 368.8 152 360 152H344C335.2 152 328 144.8 328 136V120C328 111.2 335.2 104 344 104H360zM256 80C256 53.49 277.5 32 304 32H400C426.5 32 448 53.49 448 80V176C448 202.5 426.5 224 400 224H304C277.5 224 256 202.5 256 176V80zM288 80V176C288 184.8 295.2 192 304 192H400C408.8 192 416 184.8 416 176V80C416 71.16 408.8 64 400 64H304C295.2 64 288 71.16 288 80zM256 304C256 295.2 263.2 288 272 288H336C344.8 288 352 295.2 352 304V372H416V304C416 295.2 423.2 288 432 288C440.8 288 448 295.2 448 304V388C448 396.8 440.8 404 432 404H336C327.2 404 320 396.8 320 388V320H288V472C288 480.8 280.8 488 272 488C263.2 488 256 480.8 256 472V304zM320 448C320 439.2 327.2 432 336 432H352C360.8 432 368 439.2 368 448V464C368 472.8 360.8 480 352 480H336C327.2 480 320 472.8 320 464V448zM432 432C440.8 432 448 439.2 448 448V464C448 472.8 440.8 480 432 480H416C407.2 480 400 472.8 400 464V448C400 439.2 407.2 432 416 432H432z"/></svg>
